X:1
T:Title
%%score { ( 1 3 ) | 2 }
L:1/8
Q:1/4=100
M:4/4
K:Ab
V:1 treble nm="Grand Piano"
V:3 treble 
V:2 bass 
V:1
 [Ec]2 [DB][CA] [EG]>F F2 | E2 A[FB] [EA]2 [EG]2 | [Ee]2 [Ec][EA] [EG]2 [Ec][Ec] | %3
w: Mary~Palmer * * * * *|||
 [EB]2 [A,=DF][A,DG] [G,E]4 | [A,EA]2 [A,CE][A,EA] [A,EG]2 [A,DF][A,DF] | %5
w: ||
 [Fd]2 [B,DF][DFB] [CEA]2 [B,EG]2 | z4 [Fe]2 z2 | c2 z2 z4 |] %8
w: |||
V:2
 [A,,E,]2 [A,,G,][A,,A,] [D,A,]>[D,A,D] [D,A,D]2 | [C,A,]2 [F,A,C][D,D] [E,C]2 [E,B,]2 | %2
 [C,A,]2 [C,A,][C,A,] [B,,B,]2 [=A,,F,][A,,F,] | [B,,G,]2 B,,B,, E,4 | C,2 A,,C, D,2 D,D, | %5
 [B,,B,]2 D,B,, E,2 E,2 | C,2 [C,A,][A,,A,] .[D,A,]2 [D,B,][D,B,] | %7
 .[E,CE]2 [E,G,D]>[E,G,D] [A,,A,]4 |] %8
V:3
 x8 | x8 | x8 | x8 | x8 | x8 | [A,EA]2 [Ec][_Ge] z =A,[Fe][=Ed] | z A, c>B [CA]4 |] %8

